logos/nestcoin/nestcoin.svg

<svg width="156" height="26" viewBox="0 0 156 26" fill="none" xmlns="http://www.w3.org/2000/svg">
<path d="M28.5382 16.9145C28.6072 18.6175 29.1365 19.9867 30.1261 21.0223C31.1156 22.0579 32.4964 22.5757 34.2684 22.5757C35.0739 22.5757 35.7757 22.4836 36.3741 22.2995C36.9724 22.1154 37.4787 21.8623 37.8929 21.5401C38.3302 21.2179 38.6754 20.8497 38.9285 20.4355C39.2047 19.9982 39.4233 19.538 39.5844 19.0547L42.1388 19.7451C41.6555 21.333 40.758 22.6332 39.4463 23.6458C38.1576 24.6353 36.4086 25.1301 34.1994 25.1301C32.9797 25.1301 31.8521 24.923 30.8165 24.5087C29.8039 24.0715 28.9294 23.4617 28.193 22.6792C27.4566 21.8968 26.8813 20.9648 26.4671 19.8832C26.0528 18.8016 25.8457 17.6049 25.8457 16.2932V15.4647C25.8457 14.268 26.0528 13.1519 26.4671 12.1163C26.9043 11.0807 27.5026 10.1948 28.2621 9.45834C29.0215 8.69892 29.9075 8.11209 30.92 7.69786C31.9556 7.26062 33.0717 7.04199 34.2684 7.04199C35.6722 7.04199 36.8804 7.30664 37.8929 7.83594C38.9285 8.34222 39.7685 8.97507 40.4128 9.7345C41.0802 10.4939 41.5635 11.3224 41.8626 12.2199C42.1848 13.1174 42.3459 13.9458 42.3459 14.7053V16.9145H28.5382ZM34.2684 9.59642C33.509 9.59642 32.7956 9.72299 32.1282 9.97613C31.4839 10.2063 30.9085 10.5399 30.4022 10.9772C29.919 11.4144 29.5163 11.9322 29.1941 12.5306C28.8949 13.1059 28.6993 13.7387 28.6072 14.4291H39.6534C39.6074 13.6927 39.4233 13.0253 39.1011 12.427C38.8019 11.8287 38.3992 11.3224 37.8929 10.9082C37.4097 10.4939 36.8458 10.1717 36.2015 9.94161C35.5801 9.71148 34.9358 9.59642 34.2684 9.59642Z" fill="black"/>
<path d="M49.8491 11.9437C49.8491 12.7722 50.1943 13.405 50.8847 13.8423C51.5981 14.2795 52.8868 14.5672 54.7508 14.7053C56.7529 14.8664 58.2718 15.3496 59.3074 16.1551C60.366 16.9375 60.8953 18.0882 60.8953 19.607V19.8141C60.8953 20.6426 60.7227 21.3905 60.3775 22.0579C60.0553 22.7022 59.595 23.2545 58.9967 23.7148C58.4214 24.1751 57.708 24.5203 56.8565 24.7504C56.028 25.0035 55.119 25.1301 54.1295 25.1301C52.7947 25.1301 51.6441 24.9575 50.6776 24.6123C49.734 24.2441 48.9401 23.7723 48.2957 23.197C47.6744 22.5987 47.2026 21.9313 46.8804 21.1949C46.5583 20.4355 46.3742 19.676 46.3281 18.9166L48.8826 18.2953C48.9976 19.607 49.5039 20.6656 50.4014 21.4711C51.2989 22.2535 52.4956 22.6447 53.9914 22.6447C55.2571 22.6447 56.2697 22.4031 57.0291 21.9198C57.8115 21.4135 58.2028 20.7116 58.2028 19.8141C58.2028 18.8476 57.823 18.1572 57.0636 17.743C56.3042 17.3287 55.073 17.0641 53.3701 16.949C51.391 16.8109 49.8721 16.3507 48.8135 15.5683C47.7549 14.7858 47.2256 13.6467 47.2256 12.1508V11.9437C47.2256 11.1383 47.3982 10.4364 47.7434 9.83805C48.0886 9.21671 48.5489 8.69892 49.1242 8.28469C49.7225 7.87046 50.3899 7.55978 51.1263 7.35267C51.8627 7.14555 52.6336 7.04199 53.4391 7.04199C54.5667 7.04199 55.5563 7.20308 56.4078 7.52526C57.2592 7.82443 57.9726 8.22716 58.5479 8.73344C59.1233 9.21671 59.5605 9.78052 59.8597 10.4249C60.1819 11.0692 60.389 11.7136 60.481 12.358L57.9266 12.9793C57.8115 11.8747 57.3628 11.0117 56.5803 10.3904C55.8209 9.76902 54.8199 9.45834 53.5772 9.45834C53.0939 9.45834 52.6221 9.51587 52.1619 9.63094C51.7246 9.72299 51.3334 9.87257 50.9882 10.0797C50.643 10.2868 50.3669 10.5515 50.1598 10.8736C49.9526 11.1728 49.8491 11.5295 49.8491 11.9437Z" fill="black"/>
<path d="M64.7539 7.52509H70.1389V0.483154H72.8314V7.52509H79.4591V10.0105H72.8314V21.1257C72.8314 21.8161 73.1421 22.1613 73.7634 22.1613H78.6307V24.6466H72.7969C72.0145 24.6466 71.3701 24.3935 70.8638 23.8872C70.3805 23.3809 70.1389 22.7366 70.1389 21.9541V10.0105H64.7539V7.52509Z" fill="black"/>
<path d="M99.9373 18.5714C99.7532 19.515 99.4311 20.3894 98.9708 21.1949C98.5336 22.0003 97.9697 22.7022 97.2794 23.3006C96.589 23.8759 95.7835 24.3246 94.863 24.6468C93.9425 24.969 92.9184 25.1301 91.7908 25.1301C90.5941 25.1301 89.455 24.9345 88.3734 24.5433C87.3148 24.152 86.3828 23.5882 85.5773 22.8518C84.7719 22.0924 84.1275 21.1719 83.6442 20.0903C83.184 19.0087 82.9539 17.766 82.9539 16.3622V15.948C82.9539 14.5672 83.184 13.3245 83.6442 12.2199C84.1275 11.1153 84.7719 10.1832 85.5773 9.42382C86.3828 8.6644 87.3148 8.07757 88.3734 7.66334C89.455 7.24911 90.5941 7.04199 91.7908 7.04199C92.8724 7.04199 93.8735 7.20308 94.794 7.52526C95.7145 7.84744 96.5199 8.3077 97.2103 8.90603C97.9237 9.48135 98.499 10.1717 98.9363 10.9772C99.3965 11.7826 99.7072 12.6571 99.8683 13.6007L97.1758 14.222C97.1068 13.6237 96.9342 13.0483 96.658 12.496C96.4049 11.9207 96.0482 11.4259 95.5879 11.0117C95.1507 10.5745 94.6099 10.2293 93.9655 9.97613C93.3211 9.72299 92.5732 9.59642 91.7218 9.59642C90.8933 9.59642 90.1109 9.75751 89.3744 10.0797C88.661 10.3789 88.0282 10.8161 87.4759 11.3914C86.9236 11.9437 86.4863 12.6111 86.1642 13.3935C85.865 14.176 85.7154 15.0275 85.7154 15.948V16.3622C85.7154 17.3287 85.865 18.2032 86.1642 18.9857C86.4863 19.7451 86.9236 20.3894 87.4759 20.9187C88.0282 21.448 88.6726 21.8623 89.409 22.1614C90.1454 22.4376 90.9393 22.5757 91.7908 22.5757C92.6423 22.5757 93.3787 22.4491 94 22.196C94.6444 21.9198 95.1852 21.5746 95.6224 21.1604C96.0827 20.7231 96.4394 20.2284 96.6925 19.676C96.9687 19.1237 97.1528 18.5484 97.2448 17.9501L99.9373 18.5714Z" fill="black"/>
<path d="M118.85 16.2932C118.85 17.72 118.608 18.9857 118.125 20.0903C117.665 21.1719 117.044 22.0924 116.261 22.8518C115.479 23.5882 114.558 24.152 113.5 24.5433C112.464 24.9345 111.382 25.1301 110.255 25.1301C109.104 25.1301 108.011 24.9345 106.975 24.5433C105.94 24.152 105.031 23.5882 104.248 22.8518C103.466 22.0924 102.833 21.1719 102.35 20.0903C101.89 18.9857 101.659 17.72 101.659 16.2932V15.8789C101.659 14.4751 101.89 13.2324 102.35 12.1508C102.833 11.0462 103.466 10.1142 104.248 9.35478C105.054 8.59536 105.974 8.02004 107.01 7.62882C108.045 7.2376 109.127 7.04199 110.255 7.04199C111.382 7.04199 112.464 7.2376 113.5 7.62882C114.535 8.02004 115.444 8.59536 116.227 9.35478C117.032 10.1142 117.665 11.0462 118.125 12.1508C118.608 13.2324 118.85 14.4751 118.85 15.8789V16.2932ZM110.255 22.5757C111.083 22.5757 111.843 22.4376 112.533 22.1614C113.246 21.8623 113.868 21.4365 114.397 20.8842C114.926 20.3319 115.341 19.676 115.64 18.9166C115.939 18.1342 116.088 17.2597 116.088 16.2932V15.8789C116.088 14.9584 115.939 14.1184 115.64 13.359C115.341 12.5766 114.926 11.9092 114.397 11.3569C113.868 10.8046 113.246 10.3789 112.533 10.0797C111.82 9.75751 111.06 9.59642 110.255 9.59642C109.449 9.59642 108.69 9.75751 107.976 10.0797C107.263 10.3789 106.642 10.8046 106.112 11.3569C105.583 11.9092 105.169 12.5766 104.87 13.359C104.571 14.1184 104.421 14.9584 104.421 15.8789V16.2932C104.421 17.2597 104.571 18.1342 104.87 18.9166C105.169 19.676 105.583 20.3319 106.112 20.8842C106.642 21.4365 107.252 21.8623 107.942 22.1614C108.655 22.4376 109.426 22.5757 110.255 22.5757Z" fill="black"/>
<path d="M126.76 2.41635C126.76 1.74898 126.99 1.18516 127.45 0.724905C127.934 0.241634 128.509 0 129.176 0C129.844 0 130.407 0.241634 130.868 0.724905C131.351 1.18516 131.593 1.74898 131.593 2.41635C131.593 3.08372 131.351 3.65904 130.868 4.14231C130.407 4.60257 129.844 4.8327 129.176 4.8327C128.509 4.8327 127.934 4.60257 127.45 4.14231C126.99 3.65904 126.76 3.08372 126.76 2.41635ZM121.858 22.1614H127.865V10.0106H122.48V7.5252H130.557V22.1614H136.149V24.6468H121.858V22.1614Z" fill="black"/>
<path d="M143.573 24.6468H140.881V7.52526H143.573V10.4249H143.987C145.046 8.16962 146.887 7.04199 149.51 7.04199C151.49 7.04199 153.066 7.66334 154.24 8.90603C155.413 10.1257 156 11.9667 156 14.4291V24.6468H153.308V14.9814C153.308 13.1864 152.905 11.8402 152.099 10.9427C151.294 10.0452 150.201 9.59642 148.82 9.59642C147.186 9.59642 145.897 10.1602 144.954 11.2879C144.033 12.3925 143.573 13.8768 143.573 15.7409V24.6468Z" fill="black"/>
<path d="M8.13585 3.05831V2.94824V0.705811L0 5.67675V7.9182V8.02925V10.2707L8.13585 5.30074V3.05831Z" fill="black"/>
<path d="M0 12.6466V24.7228H8.13585V7.45264L0 12.6466Z" fill="black"/>
<path d="M16.0846 2.99219L8.13574 7.45268L13.6385 12.6467V24.7229H21.7744V7.45268L16.0846 2.99219Z" fill="black"/>
</svg>

<svg width="156" height="26" fill="none" xmlns="http://www.w3.org/2000/svg"><path d="M28.538 16.915c.07 1.703.599 3.072 1.588 4.107.99 1.036 2.37 1.554 4.142 1.554.806 0 1.508-.092 2.106-.277.598-.184 1.105-.437 1.519-.759.437-.322.782-.69 1.035-1.104a6.32 6.32 0 0 0 .656-1.381l2.555.69a7.614 7.614 0 0 1-2.693 3.9c-1.288.99-3.037 1.485-5.247 1.485-1.22 0-2.347-.207-3.382-.621a7.81 7.81 0 0 1-2.624-1.83c-.736-.782-1.312-1.714-1.726-2.796-.414-1.081-.621-2.278-.621-3.59v-.828c0-1.197.207-2.313.621-3.349a7.97 7.97 0 0 1 1.795-2.658 8.004 8.004 0 0 1 2.658-1.76 8.52 8.52 0 0 1 3.348-.656c1.404 0 2.612.265 3.625.794 1.035.506 1.876 1.14 2.52 1.899a7.189 7.189 0 0 1 1.45 2.485c.322.897.483 1.726.483 2.485v2.21H28.538Zm5.73-7.319c-.759 0-1.472.127-2.14.38-.644.23-1.22.564-1.726 1.001a5.752 5.752 0 0 0-1.208 1.554 5.719 5.719 0 0 0-.587 1.898h11.046a4.8 4.8 0 0 0-.552-2.002 4.59 4.59 0 0 0-1.208-1.519 5.317 5.317 0 0 0-1.691-.966 5.522 5.522 0 0 0-1.934-.346ZM49.85 11.944c0 .828.344 1.461 1.035 1.898.713.438 2.002.725 3.866.863 2.002.161 3.52.645 4.556 1.45 1.059.782 1.588 1.933 1.588 3.452v.207c0 .829-.172 1.576-.518 2.244a4.762 4.762 0 0 1-1.38 1.657c-.576.46-1.289.805-2.14 1.035-.829.253-1.738.38-2.727.38-1.335 0-2.486-.172-3.452-.518-.944-.368-1.738-.84-2.382-1.415a6.244 6.244 0 0 1-1.416-2.002 6.877 6.877 0 0 1-.552-2.278l2.555-.622c.115 1.312.62 2.37 1.518 3.176.898.782 2.095 1.174 3.59 1.174 1.266 0 2.279-.242 3.038-.725.782-.507 1.174-1.208 1.174-2.106 0-.966-.38-1.657-1.14-2.071-.759-.414-1.99-.679-3.693-.794-1.979-.138-3.498-.598-4.556-1.38-1.06-.783-1.588-1.922-1.588-3.418v-.207c0-.806.172-1.508.517-2.106a4.71 4.71 0 0 1 1.381-1.553 6.652 6.652 0 0 1 2.002-.932 8.502 8.502 0 0 1 2.313-.311c1.128 0 2.117.161 2.969.483.851.3 1.565.702 2.14 1.208a4.877 4.877 0 0 1 1.312 1.692c.322.644.529 1.289.621 1.933l-2.554.621c-.115-1.104-.564-1.967-1.347-2.589-.76-.621-1.76-.932-3.003-.932-.483 0-.955.058-1.415.173a3.773 3.773 0 0 0-1.174.449 2.49 2.49 0 0 0-.828.794c-.207.299-.31.655-.31 1.07ZM64.754 7.525h5.385V.483h2.692v7.042h6.628v2.486h-6.628v11.115c0 .69.311 1.035.932 1.035h4.868v2.486h-5.834c-.782 0-1.427-.253-1.933-.76-.484-.506-.725-1.15-.725-1.933V10.01h-5.385V7.526ZM99.937 18.571a8.547 8.547 0 0 1-.966 2.624 7.498 7.498 0 0 1-1.692 2.106 7.716 7.716 0 0 1-2.416 1.346c-.92.322-1.945.483-3.072.483a9.97 9.97 0 0 1-3.418-.587 8.43 8.43 0 0 1-2.796-1.691c-.805-.76-1.45-1.68-1.933-2.762-.46-1.081-.69-2.324-.69-3.728v-.414c0-1.38.23-2.623.69-3.728.483-1.105 1.128-2.037 1.933-2.796a8.603 8.603 0 0 1 2.796-1.76 9.473 9.473 0 0 1 3.418-.622c1.081 0 2.083.161 3.003.483.92.322 1.726.783 2.416 1.381a6.808 6.808 0 0 1 1.726 2.071c.46.806.771 1.68.932 2.624l-2.692.621a5.153 5.153 0 0 0-.518-1.726 4.304 4.304 0 0 0-1.07-1.484 4.678 4.678 0 0 0-1.622-1.036c-.645-.253-1.393-.38-2.244-.38-.829 0-1.611.162-2.348.484-.713.299-1.346.736-1.898 1.311a6.05 6.05 0 0 0-1.312 2.002 7.094 7.094 0 0 0-.449 2.555v.414c0 .967.15 1.841.45 2.624.321.76.759 1.403 1.31 1.933.553.529 1.198.943 1.934 1.242.736.277 1.53.415 2.382.415.851 0 1.588-.127 2.209-.38.644-.276 1.185-.621 1.622-1.036.46-.437.817-.932 1.07-1.484.277-.552.46-1.128.553-1.726l2.692.621ZM118.85 16.293c0 1.427-.242 2.693-.725 3.797-.46 1.082-1.081 2.002-1.864 2.762a8.052 8.052 0 0 1-2.761 1.691 9.111 9.111 0 0 1-3.245.587 9.206 9.206 0 0 1-3.28-.587 8.135 8.135 0 0 1-2.727-1.691c-.782-.76-1.415-1.68-1.898-2.762-.46-1.104-.691-2.37-.691-3.797v-.414c0-1.404.231-2.647.691-3.728.483-1.105 1.116-2.037 1.898-2.796a8.226 8.226 0 0 1 2.762-1.726 9.103 9.103 0 0 1 3.245-.587 9.11 9.11 0 0 1 3.245.587 7.87 7.87 0 0 1 2.727 1.726c.805.76 1.438 1.691 1.898 2.796.483 1.081.725 2.324.725 3.728v.414Zm-8.595 6.283c.828 0 1.588-.138 2.278-.415a5.498 5.498 0 0 0 1.864-1.277 5.974 5.974 0 0 0 1.243-1.967c.299-.783.448-1.657.448-2.624v-.414c0-.92-.149-1.76-.448-2.52a5.9 5.9 0 0 0-1.243-2.002 5.5 5.5 0 0 0-1.864-1.277 5.47 5.47 0 0 0-2.278-.484c-.806 0-1.565.162-2.279.484a5.51 5.51 0 0 0-1.864 1.277 5.898 5.898 0 0 0-1.242 2.002c-.299.76-.449 1.6-.449 2.52v.414c0 .967.15 1.841.449 2.624.299.759.713 1.415 1.242 1.967.53.552 1.14.978 1.83 1.277a6.348 6.348 0 0 0 2.313.415ZM126.76 2.416a2.3 2.3 0 0 1 .69-1.691c.484-.483 1.059-.725 1.726-.725.668 0 1.231.242 1.692.725.483.46.725 1.024.725 1.691 0 .668-.242 1.243-.725 1.726-.461.46-1.024.69-1.692.69-.667 0-1.242-.23-1.726-.69a2.417 2.417 0 0 1-.69-1.726Zm-4.902 19.745h6.007v-12.15h-5.385V7.525h8.077v14.636h5.592v2.486h-14.291V22.16ZM143.573 24.647h-2.692V7.525h2.692v2.9h.414c1.059-2.255 2.9-3.383 5.523-3.383 1.98 0 3.556.621 4.73 1.864 1.173 1.22 1.76 3.06 1.76 5.523v10.218h-2.692V14.98c0-1.795-.403-3.14-1.209-4.038-.805-.898-1.898-1.347-3.279-1.347-1.634 0-2.923.564-3.866 1.692-.921 1.104-1.381 2.589-1.381 4.453v8.906ZM8.136 3.058V.706L0 5.676V10.272L8.136 5.3V3.058ZM0 12.647v12.076h8.136V7.453L0 12.647Z" fill="#000"/><path d="m16.085 2.992-7.95 4.46 5.504 5.195v12.076h8.135V7.453l-5.69-4.46Z" fill="#000"/></svg>
